X:1
T:Title
%%score { ( 1 4 ) | ( 2 3 ) }
L:1/8
M:9/8
K:G
V:1 treble nm="Grand Piano"
V:4 treble 
V:2 treble 
V:3 treble 
V:1
 z9[Q:1/4=100] | [GBd]3 [DGB]3 [GBe]2 [GB] | [GBd]3 .[DGB]3 DGB | [DFd]3 [DFA]3 [DFd]2 [F_B] | %4
[M:3/4] [DGB]6 |[M:3/8] DGB |[M:9/8] [GBd]3 [DGB]3 [GBe]2 [GB] | [GBd]3 .[DGB]3 [DB][EB][=FB] | %8
 [DFd]3 [DFB]3 .[E_B^c]2 [Bc] |[M:3/4] [DFB]6 |[M:3/8] BBB | %11
[M:9/8] c-[Fc-][Fc] c-[Fc-][Fc] [CGc]AB | c-[DFc-][DFc-] [DFc]3 AAB | %13
 c-[Fc-][Fc] c-[Fc-][Fc] ^c-[_Bc]c |[M:3/4] d-[Ad-] [Ad-][DFd-] [Fd-][Fd] | %15
[M:3/8] [DGd][DGd][DFcd] |[M:9/8] [EGBe]3 [DGBd]3 [D=FB][FA][FG] | [EGce]6 [Ee][EG][^DA] | %18
 [DB]3 [Gd]3 [DFB]2 [CFA] |[M:3/4] [B,DG]6 |] %20
V:2
 z3 z3 DGB | z3 z3 B,3 | G,,D,G, B,G,D, B,3 | z3 z3 C3 |[M:3/4] G,,D, G,B, G,D, |[M:3/8] B,3 | %6
[M:9/8] z3 z3 B,3 | G,,D,G, B,G,D, z DD | F,,F,F, F,F,F, z[K:treble] dE | %9
[M:3/4][K:bass] B,,D, F, .B,,3 |[M:3/8] B,B,B, |[M:9/8] z CC z CC z[K:treble] [CG][CG] | %12
 [D,,D,][F,,F,][A,,A,] .[D,,D,]3 A,A,B, | z DD z DD z[K:treble] [EG][EG_B] | %14
[M:3/4][K:bass] z[K:treble] [DF] .[DF]2[K:bass] DD |[M:3/8] [B,,B,]2 [A,,A,] |[M:9/8] z3 z3 G,3 | %17
 C,E,G, .C,3 [C,G,][C,G,][C,G,] | [D,G,]3 [D,B,]3 D,2 D, |[M:3/4] G,,6 |] %20
V:3
 x9 | G,,D,G, B,G,D, z2 D | x9 | D,,D,F, CF,D, z2 D |[M:3/4] x6 |[M:3/8] x3 | %6
[M:9/8] G,,D,G, B,G,D, z2 D | z3 z3 G,3 | z3 z3 F,3[K:treble] |[M:3/4][K:bass] x6 |[M:3/8] x3 | %11
[M:9/8] [D,,D,]3 [D,,D,]3 [^D,,^D,]3[K:treble] | x9 | [D,,D,]3 [D,,D,]3 [D,,D,]3[K:treble] | %14
[M:3/4][K:bass] [D,,D,]3[K:treble][K:bass] [C,C]3 |[M:3/8] x3 |[M:9/8] [G,,G,]D,G, B,G,D, z CB, | %17
 x9 | x9 |[M:3/4] x6 |] %20
V:4
 x9 | x9 | x9 | x9 |[M:3/4] x6 |[M:3/8] x3 |[M:9/8] x9 | x9 | x9 |[M:3/4] x6 |[M:3/8] x3 | %11
[M:9/8] .[CF]3 .[CF]3 z3 | .[DF]3 z3 z3 | .[DF]3 .[DF]3 .[EG_B]3 |[M:3/4] .[DFA]2 z2 z2 | %15
[M:3/8] x3 |[M:9/8] x9 | x9 | x9 |[M:3/4] x6 |] %20

